svg/black/med.svg

<svg height="32" viewBox="0 0 32 32" width="32" xmlns="http://www.w3.org/2000/svg"><path d="m16 32c-8.836556 0-16-7.163444-16-16s7.163444-16 16-16 16 7.163444 16 16-7.163444 16-16 16zm8-19.9389156-8 4.8049877-8-4.8049877v8.9148449l2.5361973 1.4805461v-5.953437l5.4638027 3.273617 5.4638027-3.2704602v5.9505959l2.5361973-1.4805461zm-7.9691329 11.1167232-2.3389021-1.398469-2.3102625 1.398469 4.6491646 2.8221924 4.6491647-2.8221924-2.3102625-1.398469zm4.6182976-14.35561519-4.6491647-2.82219241-4.6491647 2.82219241 2.3102626 1.39846899 2.3389021-1.39846899 2.3389021 1.39846899z" fill-rule="evenodd"/></svg>

<svg xmlns="http://www.w3.org/2000/svg" width="32" height="32" viewBox="0 0 32 32">
  <path fill-rule="evenodd" d="M16,32 C7.163444,32 0,24.836556 0,16 C0,7.163444 7.163444,0 16,0 C24.836556,0 32,7.163444 32,16 C32,24.836556 24.836556,32 16,32 Z M24,12.0610844 L16,16.8660721 L8,12.0610844 L8,20.9759293 L10.5361973,22.4564754 L10.5361973,16.5030384 L16,19.7766554 L21.4638027,16.5061952 L21.4638027,22.4567911 L24,20.976245 L24,12.0610844 Z M16.0308671,23.1778076 L13.691965,21.7793386 L11.3817025,23.1778076 L16.0308671,26 L20.6800318,23.1778076 L18.3697693,21.7793386 L16.0308671,23.1778076 Z M20.6491647,8.82219241 L16,6 L11.3508353,8.82219241 L13.6610979,10.2206614 L16,8.82219241 L18.3389021,10.2206614 L20.6491647,8.82219241 Z"/>
</svg>
